src/icons/export.svg

<svg xmlns="http://www.w3.org/2000/svg"  viewBox="0 0 50 50" width="32px" height="32px"><path d="M 1 -0.03125 C 0.425781 -0.03125 -0.03125 0.425781 -0.03125 1 L -0.03125 49 C -0.03125 49.574219 0.425781 50.03125 1 50.03125 L 31 50.03125 C 31.574219 50.03125 32.03125 49.574219 32.03125 49 L 32.03125 26 L 16 26 C 15.449219 26 15 25.550781 15 25 C 15 24.449219 15.449219 24 16 24 L 32.03125 24 L 32.03125 1 C 32.03125 0.425781 31.574219 -0.03125 31 -0.03125 Z M 32.03125 24 L 32.03125 26 L 45.59375 26 L 38.40625 33.1875 C 38.015625 33.578125 38.015625 34.203125 38.40625 34.59375 C 38.601563 34.789063 38.835938 34.90625 39.09375 34.90625 C 39.351563 34.90625 39.617188 34.789063 39.8125 34.59375 L 49.40625 25 L 39.8125 15.40625 C 39.421875 15.015625 38.796875 15.015625 38.40625 15.40625 C 38.015625 15.796875 38.015625 16.421875 38.40625 16.8125 L 45.59375 24 Z"/></svg>

<svg role="img" viewBox="0 0 50 50" xmlns="http://www.w3.org/2000/svg"><path d="M1-.031C.426-.031-.031.426-.031 1v48c0 .574.457 1.031 1.031 1.031h30c.574 0 1.031-.457 1.031-1.031V26H16c-.55 0-1-.45-1-1s.45-1 1-1h16.031V1c0-.574-.457-1.031-1.031-1.031ZM32.031 24v2h13.563l-7.188 7.188a.99.99 0 0 0 0 1.406c.196.195.43.312.688.312.258 0 .523-.117.718-.312L49.407 25l-9.593-9.594a.99.99 0 0 0-1.407 0 .99.99 0 0 0 0 1.406L45.594 24Z"/></svg>
